X: 3764
T: Birmingham, The
R: reel
M: 4/4
K: Gmajor
~g2gf gd Bd|g2gd eaaf|~g2gf gd Bd|1 ec Ac BG Bd:|2 ec Ac BG GF||
|:Gd BA G3D|Gd Bd eA BA|GA Bd ~g2ge|1 fd cA BG AF:|2 fd cA BG GF||
|:G2dG (3Bcd ef|g2DG FD EF|G2dG (3Bcd eg|1 fd cA BG AF:|2 fd cA Bd ef||

